X: 1
T:The Crossroads Ceili
T:The Stack of Oats
S:Robert Eckert <Robert@WHISTLEPLAYERS.ZZN.COM> irtrad-l 2001-5-03
B:Ed Reavy's "The Music of Corktown"
D:78 recording by Reavy's Philadelphia band, Erin's Pride Orchestra
R:Barndance
H:(Played by Reavy)
N:The transcription doesn't really catch the true 'flavour' of the tune
D:John Carty:At The Racket
Z:Adrian Scahill
M:4/4
L:1/8
K:G
GA|B2B2 BAGE|D3E DEGA|B2AB c2B2|E3F E3F|\
AGFG A2DF|GFGA B2e2|dBcA F2D2|1 (3GAG FA GDGA:|2 G2FA GABc||\
d2d2 g3e|dedB GABc|d2d2 g2e2|f3g f2AB|\
cBcB cdeg|f3e f3d|e3f ed^ce|d3e dcBc|\
d2d2 gbge|dgdB GABc|d2d2 g2d2|b6z2|\
abaf d3a|gagd B3e|dBcA F2D2|GAFA GDGA||\
